X:42
T:Byrn's March
R:march
B:O'Farrell's Pocket Companion
D:Liz Knowles
Z:id:hn-march-42
M:C|
L:1/8
K:D
A | d2dc ABcA | d2dc A2GF | d2dc ABcA | d2dc A2GF |
BcBA F3A | BcBA F2ED | d2dA BcBF | A2AE F2ED |
D3E DEFD | EDEG F2ED | D2D2 DEFD | EDEF D3E |
D3E DEFD | EDEG F2ED | D2D2 DEFD | EDEF D3 :|
|: z | ABAG F2F2 | ABAG F2ED | BcBA F3A | BcBA F2ED |
A2Bc d2cB | A2D2 F2ED | dedA BcBF | ABAE F2ED |
d3e defd | edeg f2ed | d3e defd | edef dBAB |
d2d2 defd | edeg f2ed | d3e defd | edef d3 :|

